common/src/main/resources/icons/general/mouseShortcut.svg

<!--
  - The MIT License (MIT)
  -
  - Copyright (c) 2015-2022 Elior "Mallowigi" Boukhobza
  -
  - Permission is hereby granted, free of charge, to any person obtaining a copy
  - of this software and associated documentation files (the "Software"), to deal
  - in the Software without restriction, including without limitation the rights
  - to use, copy, modify, merge, publish, distribute, sublicense, and/or sell
  - copies of the Software, and to permit persons to whom the Software is
  - furnished to do so, subject to the following conditions:
  -
  - The above copyright notice and this permission notice shall be included in all
  - copies or substantial portions of the Software.
  -
  - THE SOFTWARE IS PROVIDED "AS IS", WITHOUT WARRANTY OF ANY KIND, EXPRESS OR
  - IMPLIED, INCLUDING BUT NOT LIMITED TO THE WARRANTIES OF MERCHANTABILITY,
  - FITNESS FOR A PARTICULAR PURPOSE AND NONINFRINGEMENT. IN NO EVENT SHALL THE
  - AUTHORS OR COPYRIGHT HOLDERS BE LIABLE FOR ANY CLAIM, DAMAGES OR OTHER
  - LIABILITY, WHETHER IN AN ACTION OF CONTRACT, TORT OR OTHERWISE, ARISING FROM,
  - OUT OF OR IN CONNECTION WITH THE SOFTWARE OR THE USE OR OTHER DEALINGS IN THE
  - SOFTWARE.
  -
  -
  -->


<svg xmlns="http://www.w3.org/2000/svg" version="1.1" width="13px" height="13px" fill="#26C6DA"
     viewBox="0 0 24 24">
  <path
    d="M14,7H10V2.1C12.28,2.56 14,4.58 14,7M4,7C4,4.58 5.72,2.56 8,2.1V7H4M14,12C14,14.42 12.28,16.44 10,16.9V18A3,3 0 0,0 13,21A3,3 0 0,0 16,18V13A4,4 0 0,1 20,9H22L21,10L22,11H20A2,2 0 0,0 18,13H18V18A5,5 0 0,1 13,23A5,5 0 0,1 8,18V16.9C5.72,16.44 4,14.42 4,12V9H14V12Z" />
</svg>

<svg xmlns="http://www.w3.org/2000/svg" width="13" height="13" fill="#26C6DA" viewBox="0 0 24 24"><path d="M14 7h-4V2.1A5 5 0 0 1 14 7M4 7a5 5 0 0 1 4-4.9V7zm10 5a5 5 0 0 1-4 4.9V18a3 3 0 0 0 3 3 3 3 0 0 0 3-3v-5a4 4 0 0 1 4-4h2l-1 1 1 1h-2a2 2 0 0 0-2 2v5a5 5 0 0 1-5 5 5 5 0 0 1-5-5v-1.1A5 5 0 0 1 4 12V9h10z"/></svg>
